48x48/apps/accessories-ebook-reader.svg

<svg xmlns="http://www.w3.org/2000/svg" width="48" height="48"><rect style="opacity:.2" width="32" height="40" x="8" y="5" rx="2" ry="2"/><rect style="fill:#009587" width="32" height="40" x="8" y="4" rx="2" ry="2"/><path style="opacity:.2" d="M31 5v16.5l2.5-1.5 2.5 1.5V5z"/><path style="fill:#d8d8d8" d="M31 4v16.5l2.5-1.5 2.5 1.5V4z"/><path style="opacity:.2" d="M10 4c-1.108 0-2 .892-2 2v36c0 1.108.892 2 2 2h4V4h-4z"/><path style="opacity:.2;fill:#f4f4f7" d="M10 4c-1.108 0-2 .892-2 2v1c0-1.108.892-2 2-2h28c1.108 0 2 .892 2 2V6c0-1.108-.892-2-2-2H10z"/></svg>

<svg xmlns="http://www.w3.org/2000/svg" width="48" height="48" version="1.1">
 <rect style="opacity:0.2" width="32" height="40" x="8" y="5" rx="2" ry="2"/>
 <rect style="fill:#009587" width="32" height="40" x="8" y="4" rx="2" ry="2"/>
 <path style="opacity:0.2" d="M 31,5 V 21.5 L 33.5,20 36,21.5 V 5 Z"/>
 <path style="fill:#d8d8d8" d="M 31,4 V 20.5 L 33.5,19 36,20.5 V 4 Z"/>
 <path style="opacity:0.2" d="M 10 4 C 8.892 4 8 4.892 8 6 L 8 42 C 8 43.108 8.892 44 10 44 L 14 44 L 14 4 L 10 4 z"/>
 <path style="opacity:0.2;fill:#f4f4f7" d="M 10 4 C 8.892 4 8 4.892 8 6 L 8 7 C 8 5.892 8.892 5 10 5 L 38 5 C 39.108 5 40 5.892 40 7 L 40 6 C 40 4.892 39.108 4 38 4 L 10 4 z"/>
</svg>
